packages/kronos-fna-icons/src/phone.svg

<?xml version="1.0" encoding="UTF-8"?>
<svg width="20px" height="20px" viewBox="0 0 20 20" version="1.1" xmlns="http://www.w3.org/2000/svg" xmlns:xlink="http://www.w3.org/1999/xlink">
    <!-- Generator: Sketch 50.2 (55047) - http://www.bohemiancoding.com/sketch -->
    <title>phone</title>
    <desc>Created with Sketch.</desc>
    <defs></defs>
    <g id="phone" stroke="none" stroke-width="1" fill="none" fill-rule="evenodd">
        <path d="M11.5358243,11.5366954 C9.55701274,13.5162881 7.26493495,15.4091663 6.35872833,14.5013972 C5.06113418,13.2053655 4.2627349,12.0749509 1.40271554,14.3724972 C-1.45730381,16.6700434 0.738684827,18.2020014 1.99643712,19.4597537 C3.44636772,20.9081218 8.85079654,19.5363125 14.1942908,14.1935995 C19.5354414,8.85166766 20.9103756,3.44567642 19.4588825,1.99574582 C18.2026927,0.73799352 16.671516,-1.45643269 14.3731885,1.40202424 C12.074861,4.26048117 13.2044944,5.06044288 14.5020885,6.35803702 C15.4059515,7.26580607 13.5146358,9.55632143 11.5358243,11.5366954 L11.5358243,11.5366954 Z" id="Shape" fill="#000000"></path>
    </g>
</svg>

<svg viewBox="0 0 20 20" xmlns="http://www.w3.org/2000/svg">
    <title>phone</title>
    <path d="M11.536 11.537c-1.979 1.98-4.271 3.872-5.177 2.965-1.298-1.296-2.096-2.426-4.956-.129-2.86 2.297-.664 3.83.594 5.087 1.45 1.448 6.854.077 12.198-5.266 5.341-5.342 6.716-10.748 5.265-12.198-1.256-1.258-2.787-3.452-5.086-.594-2.299 2.858-1.169 3.658.129 4.956.904.908-.987 3.198-2.966 5.179h-.001z" />
</svg>
